X: 1
T: Rainy Day, The
M: 4/4
L: 1/8
R: reel
K: Gmaj
|:EAAG AGAB|cedB {d}c2Ac|BGGF GFGA|Bdef gdBG|
EAAG AGAB|{d}c2AB cdef|gbaf gedB|GBdB BAA2:|
|:ea~a2 ea{b}ag|edef gabg|egfa gfga|bgaf gfed|
ea~a2 ea{b}ag|edef gbaf|gedB GABd|gedB{d} BAA2:|
